logos/elasticsearch.svg

<?xml version="1.0" encoding="UTF-8"?>
<svg width="256px" height="288px" viewBox="0 0 256 288" version="1.1" xmlns="http://www.w3.org/2000/svg" preserveAspectRatio="xMidYMid">
    <title>Elasticsearch</title>
    <g>
        <path d="M0,143.820336 C0,156.260873 1.74383247,168.260957 4.71014544,179.775644 L179.776543,179.775644 C199.632863,179.775644 215.731852,163.676655 215.731852,143.820336 C215.731852,123.955028 199.632863,107.865027 179.776543,107.865027 L4.71014544,107.865027 C1.74383247,119.370726 0,131.379799 0,143.820336" fill="#343741"></path>
        <path d="M242.013385,68.8634049 C247.038139,64.2341589 251.712329,59.2633375 256,53.932963 C229.63577,21.0787997 189.213014,-7.10522777e-15 143.819437,-7.10522777e-15 C87.0010604,-7.10522777e-15 38.1018406,33.0519175 14.7758341,80.8994445 L211.334518,80.8994445 C222.714373,80.8994445 233.653776,76.5758187 242.013385,68.8634049" fill="#FEC514"></path>
        <path d="M211.333619,206.742126 L14.7749352,206.742126 C38.1099305,254.580664 87.0001615,287.641571 143.818538,287.641571 C189.212115,287.641571 229.634871,266.553782 255.999101,233.708608 C251.711431,228.369244 247.03724,223.398423 242.012486,218.769177 C233.652877,211.047774 222.713474,206.742126 211.333619,206.742126" fill="#00BFB3"></path>
    </g>
</svg>

<svg preserveAspectRatio="xMidYMid" viewBox="0 0 256 288" xmlns="http://www.w3.org/2000/svg">
  <path fill="#343741" d="M0 143.82c0 12.44 1.744 24.441 4.71 35.956h175.067c19.856 0 35.955-16.1 35.955-35.956 0-19.865-16.1-35.955-35.955-35.955H4.71C1.744 119.371 0 131.38 0 143.82"/>
  <path fill="#FEC514" d="M242.013 68.863c5.025-4.629 9.7-9.6 13.987-14.93C229.636 21.079 189.213 0 143.82 0 87 0 38.101 33.052 14.775 80.9h196.559c11.38 0 22.319-4.324 30.678-12.037"/>
  <path fill="#00BFB3" d="M211.334 206.742H14.774c23.336 47.839 72.226 80.9 129.045 80.9 45.393 0 85.816-21.088 112.18-53.933a136.604 136.604 0 0 0-13.987-14.94c-8.36-7.721-19.299-12.027-30.678-12.027"/>
</svg>
